public/assets/icons/qt.svg

<svg width="48" height="48" viewBox="0 0 256 256" fill="none"
  xmlns="http://www.w3.org/2000/svg"
  xmlns:xlink="http://www.w3.org/1999/xlink" version="1.1">

  <g transform="translate(0, 0)">
    <svg xmlns="http://www.w3.org/2000/svg" width="256" height="256" fill="none" viewBox="0 0 256 256">
      <rect width="256" height="256" fill="#242938" rx="60"/>
      <path fill="#41CD52" fill-rule="evenodd" d="M99.5884 90.2637C90.8797 90.2637 84.8736 93.0035 81.5703 98.5552C78.3421 104.107 76.6904 112.903 76.6904 125.088C76.6904 137.201 78.267 145.925 81.4202 151.116C84.5733 156.307 90.6544 158.975 99.5884 158.975C108.522 158.975 114.528 156.38 117.682 151.26C120.76 146.141 122.336 137.417 122.336 125.232C122.336 112.975 120.76 104.107 117.531 98.5552C114.303 93.0035 108.297 90.2637 99.5884 90.2637" clip-rule="evenodd"/>
      <path fill="#41CD52" fill-rule="evenodd" d="M178.837 169.771C170.903 169.771 165.464 168.063 162.516 164.647C159.57 161.232 158.059 154.755 158.059 145.22V114.477H147.331V102.237H158.059V83.0234H173.246V102.237H192.587V114.548H173.246V143.654C173.246 149.062 173.699 152.62 174.53 154.329C175.36 156.108 177.552 156.962 180.952 156.962L192.436 156.534L193.116 168.063C186.921 169.201 182.16 169.771 178.837 169.771V169.771ZM135.091 183.576L120.66 189.91L108.194 170.624C106.38 171.123 103.585 171.408 99.656 171.408C85.0741 171.408 74.8743 167.707 69.1322 160.306C63.3901 152.906 60.5191 141.164 60.5191 125.222C60.5191 109.211 63.4657 97.3272 69.2833 89.5704C75.101 81.8129 85.2252 77.8989 99.656 77.8989C114.087 77.8989 124.211 81.7425 129.953 89.4992C135.771 97.1849 138.642 109.069 138.642 125.152C138.642 135.755 137.433 144.294 135.091 150.771C132.672 157.318 128.82 162.299 123.38 165.715L135.091 183.576ZM217.369 51H209.663H47.7505L17 79.9634V176.816V184.715V204.783H38.3062H46.0127H207.925L238.675 175.82V78.9664V71.068V51H217.369Z" clip-rule="evenodd"/>
    </svg>
  </g>

</svg>

<svg xmlns="http://www.w3.org/2000/svg" width="48" height="48" fill="none" viewBox="0 0 256 256"><svg xmlns="http://www.w3.org/2000/svg" width="256" height="256" viewBox="0 0 256 256"><rect width="256" height="256" fill="#242938" rx="60"/><path fill="#41CD52" fill-rule="evenodd" d="M99.588 90.264c-8.708 0-14.714 2.74-18.018 8.291-3.228 5.552-4.88 14.348-4.88 26.533 0 12.113 1.577 20.837 4.73 26.028s9.234 7.859 18.168 7.859 14.94-2.595 18.094-7.715c3.078-5.119 4.654-13.843 4.654-26.028 0-12.257-1.576-21.125-4.805-26.677s-9.234-8.291-17.943-8.291" clip-rule="evenodd"/><path fill="#41CD52" fill-rule="evenodd" d="M178.837 169.771q-11.9 0-16.321-5.124c-2.946-3.415-4.457-9.892-4.457-19.427v-30.743h-10.728v-12.24h10.728V83.023h15.187v19.214h19.341v12.311h-19.341v29.106c0 5.408.453 8.966 1.284 10.675.83 1.779 3.022 2.633 6.422 2.633l11.484-.428.68 11.529q-9.293 1.708-14.279 1.708m-43.746 13.805-14.431 6.334-12.466-19.286c-1.814.499-4.609.784-8.538.784-14.582 0-24.782-3.701-30.524-11.102s-8.613-19.142-8.613-35.084c0-16.011 2.947-27.895 8.764-35.652C75.101 81.813 85.225 77.9 99.656 77.9s24.555 3.844 30.297 11.6c5.818 7.686 8.689 19.57 8.689 35.653 0 10.603-1.209 19.142-3.551 25.619-2.419 6.547-6.271 11.528-11.711 14.944zM217.369 51H47.75L17 79.963v124.82h190.925l30.75-28.963V51z" clip-rule="evenodd"/></svg></svg>
